X: 1047
T: The Fisherman's Frolic
R:double jig
N:"collected by F. O'Neill"
B:O'Neill's 1047
Z:Transcribed by henrik.norbeck@mailbox.swipnet.se
M:6/8
L:1/8
K:D
A|Add d>cd|c>ee e2g|fed dfd|e>cA A2A|
Add d>cd|c>ee e2g|fed (f<a)A|ABc d2:|
a|afd dfa|agf g2a|afd dfd|ecA A(B/c/)|
dcd e^de|f^ef g2(a/g/)|f>ed (f<a)A|ABc d2:|


